assets/icons/profile_grid_filled.svg

<svg width="23" height="22" viewBox="0 0 23 22" fill="none" xmlns="http://www.w3.org/2000/svg">
<path fill-rule="evenodd" clip-rule="evenodd" d="M3.17375 11.9169C2.73984 11.9169 2.5229 11.9169 2.38839 12.0526C2.25389 12.1885 2.25594 12.4041 2.26005 12.8355C2.27145 14.0312 2.30761 15.0461 2.42242 15.9001C2.5955 17.1874 2.96226 18.2451 3.79862 19.0814C4.63498 19.9177 5.69264 20.2845 6.97999 20.4576C7.83391 20.5724 8.8489 20.6086 10.0446 20.62C10.4759 20.6241 10.6916 20.6261 10.8273 20.4916C10.9632 20.3571 10.9632 20.1402 10.9632 19.7062V12.8335C10.9632 12.4014 10.9632 12.1854 10.8289 12.0511C10.6947 11.9169 10.4786 11.9169 10.0465 11.9169H3.17375ZM21.4996 9.16496C21.5037 9.59624 21.5058 9.81193 21.3713 9.94778C21.2367 10.0835 21.0198 10.0835 20.5859 10.0835H13.7132C13.2811 10.0835 13.065 10.0835 12.9307 9.94925C12.7965 9.81505 12.7965 9.59899 12.7965 9.16686V2.29411C12.7965 1.86021 12.7965 1.64326 12.9323 1.50876C13.0681 1.37425 13.2837 1.37631 13.7151 1.38041C14.9108 1.39181 15.9257 1.42797 16.7797 1.54278C18.0671 1.71586 19.1247 2.08263 19.961 2.91898C20.7974 3.75534 21.1641 4.813 21.3373 6.10035C21.452 6.95427 21.4883 7.96926 21.4996 9.16496Z" fill="url(#paint0_linear_553_1562)"/>
<path fill-rule="evenodd" clip-rule="evenodd" d="M10.9632 2.29411C10.9632 1.86021 10.9632 1.64326 10.8273 1.50876C10.6916 1.37425 10.4759 1.37631 10.0446 1.38041C8.8489 1.39181 7.83391 1.42797 6.97998 1.54278C5.69264 1.71586 4.63498 2.08263 3.79862 2.91898C2.96226 3.75534 2.5955 4.813 2.42242 6.10035C2.30761 6.95427 2.27145 7.96926 2.26005 9.16496C2.25594 9.59624 2.25389 9.81193 2.38839 9.94778C2.5229 10.0835 2.73984 10.0835 3.17375 10.0835H10.0465C10.4786 10.0835 10.6947 10.0835 10.8289 9.94925C10.9632 9.81505 10.9632 9.59899 10.9632 9.16686V2.29411ZM12.7965 19.7062C12.7965 20.1402 12.7965 20.3571 12.9323 20.4916C13.0681 20.6261 13.2837 20.6241 13.7151 20.62C14.9108 20.6086 15.9257 20.5724 16.7797 20.4576C18.0671 20.2845 19.1247 19.9177 19.961 19.0814C20.7974 18.2451 21.1641 17.1874 21.3373 15.9001C21.452 15.0461 21.4883 14.0312 21.4996 12.8355C21.5037 12.4041 21.5058 12.1885 21.3713 12.0526C21.2367 11.9169 21.0198 11.9169 20.5859 11.9169H13.7132C13.2811 11.9169 13.065 11.9169 12.9307 12.0511C12.7965 12.1854 12.7965 12.4014 12.7965 12.8335V19.7062Z" fill="url(#paint1_linear_553_1562)"/>
<defs>
<linearGradient id="paint0_linear_553_1562" x1="-1.50597" y1="20.6762" x2="34.0975" y2="3.42817" gradientUnits="userSpaceOnUse">
<stop stop-color="#FF97CD"/>
<stop offset="1" stop-color="#FF349D"/>
</linearGradient>
<linearGradient id="paint1_linear_553_1562" x1="-1.50597" y1="20.6762" x2="34.0975" y2="3.42817" gradientUnits="userSpaceOnUse">
<stop stop-color="#FF97CD"/>
<stop offset="1" stop-color="#FF349D"/>
</linearGradient>
</defs>
</svg>

<svg xmlns="http://www.w3.org/2000/svg" width="23" height="22" fill="none" viewBox="0 0 23 22"><path fill="url(#a)" fill-rule="evenodd" d="M3.174 11.917c-.434 0-.651 0-.786.136-.134.135-.132.351-.128.782.011 1.196.048 2.211.162 3.065.173 1.287.54 2.345 1.377 3.181.836.837 1.894 1.204 3.181 1.377.854.114 1.869.15 3.065.162.43.004.647.006.782-.128.136-.135.136-.352.136-.786v-6.872c0-.433 0-.649-.134-.783s-.35-.134-.783-.134zM21.5 9.165c.004.431.006.647-.129.783-.134.136-.351.136-.785.136h-6.873c-.432 0-.648 0-.782-.135-.134-.134-.134-.35-.134-.782V2.294c0-.434 0-.65.135-.785.136-.135.352-.133.783-.129 1.196.012 2.21.048 3.065.163 1.287.173 2.345.54 3.181 1.376s1.203 1.894 1.376 3.181c.115.854.151 1.87.163 3.065" clip-rule="evenodd"/><path fill="url(#b)" fill-rule="evenodd" d="M10.963 2.294c0-.434 0-.65-.136-.785-.135-.135-.351-.133-.782-.129-1.196.012-2.211.048-3.065.163-1.287.173-2.345.54-3.181 1.376-.837.836-1.203 1.894-1.377 3.181-.114.854-.15 1.87-.162 3.065-.004.431-.006.647.128.783.135.136.352.136.786.136h6.873c.432 0 .648 0 .782-.135.134-.134.134-.35.134-.782zm1.834 17.412c0 .434 0 .651.135.786.136.134.352.132.783.128 1.196-.011 2.21-.048 3.065-.162 1.287-.173 2.345-.54 3.181-1.377.836-.836 1.203-1.894 1.376-3.18.115-.855.151-1.87.163-3.065.004-.432.006-.648-.129-.783-.134-.136-.351-.136-.785-.136h-6.873c-.432 0-.648 0-.782.134s-.134.35-.134.783z" clip-rule="evenodd"/><defs><linearGradient id="a" x1="-1.506" x2="34.097" y1="20.676" y2="3.428" gradientUnits="userSpaceOnUse"><stop stop-color="#ff97cd"/><stop offset="1" stop-color="#ff349d"/></linearGradient><linearGradient id="b" x1="-1.506" x2="34.097" y1="20.676" y2="3.428" gradientUnits="userSpaceOnUse"><stop stop-color="#ff97cd"/><stop offset="1" stop-color="#ff349d"/></linearGradient></defs></svg>
